src/lib/packages/icons/src/assets/line/lightbulb.svg

<svg width="24" height="24" viewBox="0 0 24 24" fill="none" xmlns="http://www.w3.org/2000/svg">
<path d="M11.7129 2.25302C9.72389 2.19002 7.86302 2.92314 6.44702 4.30014C5.03002 5.67714 4.25 7.52409 4.25 9.50009C4.25 11.2551 4.993 12.977 6.521 14.763C7.263 15.631 7.75 16.2781 7.75 17.3221V18.0001C7.75 20.2431 9.25798 21.7501 11.501 21.7501C13.744 21.7501 15.251 20.2431 15.251 18.0001V17.317C15.251 16.259 15.742 15.609 16.436 14.804C17.601 13.452 18.788 11.757 18.749 9.43099C18.686 5.58299 15.5289 2.36202 11.7129 2.25302ZM11.5 20.2501C10.091 20.2501 9.25 19.4091 9.25 18.0001V17.7501H13.751V18.0001C13.751 19.4091 12.909 20.2501 11.5 20.2501ZM15.2991 13.825C14.6861 14.536 14.121 15.2661 13.877 16.2501H12.25V13.3111L14.03 11.5311C14.323 11.2381 14.323 10.7631 14.03 10.4701C13.737 10.1771 13.262 10.1771 12.969 10.4701L11.499 11.94L10.0291 10.4701C9.73605 10.1771 9.26102 10.1771 8.96802 10.4701C8.67502 10.7631 8.67502 11.2381 8.96802 11.5311L10.748 13.3111V16.2501H9.1189C8.8749 15.2811 8.30991 14.5482 7.65991 13.7882C6.37291 12.2852 5.74805 10.8821 5.74805 9.50009C5.74805 7.93309 6.36697 6.46806 7.49097 5.37606C8.57397 4.32406 9.99007 3.75009 11.4971 3.75009C11.5541 3.75009 11.611 3.75104 11.668 3.75204C14.693 3.83904 17.1961 6.39716 17.2471 9.45516C17.2791 11.2782 16.2801 12.687 15.2991 13.825Z" fill="currentColor"/>
</svg>

<svg xmlns="http://www.w3.org/2000/svg" width="24" height="24" fill="none"><path fill="currentColor" d="M11.713 2.253A7.156 7.156 0 0 0 6.447 4.3 7.193 7.193 0 0 0 4.25 9.5c0 1.755.743 3.477 2.271 5.263.742.868 1.229 1.515 1.229 2.56V18c0 2.243 1.508 3.75 3.751 3.75s3.75-1.507 3.75-3.75v-.683c0-1.058.491-1.708 1.185-2.513 1.165-1.352 2.352-3.047 2.313-5.373-.063-3.848-3.22-7.069-7.036-7.178ZM11.5 20.25c-1.409 0-2.25-.84-2.25-2.25v-.25h4.501V18c0 1.41-.842 2.25-2.251 2.25Zm3.8-6.425c-.614.711-1.179 1.441-1.423 2.425H12.25v-2.939l1.78-1.78a.75.75 0 1 0-1.061-1.06l-1.47 1.469-1.47-1.47a.75.75 0 0 0-1.061 1.061l1.78 1.78v2.94h-1.63c-.243-.97-.808-1.703-1.458-2.463-1.287-1.503-1.912-2.906-1.912-4.288 0-1.567.619-3.032 1.743-4.124a5.706 5.706 0 0 1 4.177-1.624c3.025.087 5.528 2.645 5.58 5.703.031 1.823-.968 3.232-1.949 4.37Z"/></svg>
